images/ink_protocol.svg

<svg height="250" viewBox="0 0 250 250" width="250" xmlns="http://www.w3.org/2000/svg"><path d="m129.332031 1.25h-.109375v112.132812c8.953125 1.710938 15.679688 8.945313 15.679688 17.613282 0 2.652344-.648438 5.164062-1.777344 7.429687l105.90625 43.882813-123.875 66.75 123.878906-66.75zm0 0" fill="#1e3c64"/><path d="m1.273438 182.308594 105.910156-43.882813c-1.128906-2.265625-1.773438-4.777343-1.773438-7.429687 0-8.667969 6.722656-15.902344 15.675782-17.613282v-112.132812h-.105469zm0 0" fill="#3c82b4"/><path d="m143.125 138.425781c-3.105469 6.230469-9.972656 10.570313-17.972656 10.570313l.003906 100.0625 123.875-66.75zm0 0" fill="#142846"/><path d="m125.152344 249.058594v-100.0625c-7.996094 0-14.863282-4.339844-17.96875-10.570313l-105.910156 43.882813zm0 0" fill="#2d4b69"/></svg>

<!-- Generator: Adobe Illustrator 16.0.0, SVG Export Plug-In . SVG Version: 6.00 Build 0)  -->
<svg xmlns="http://www.w3.org/2000/svg" xmlns:xlink="http://www.w3.org/1999/xlink" width="250px" height="250px" viewBox="0 0 250 250" version="1.1">
<g id="surface1">
<path style=" stroke:none;fill-rule:nonzero;fill:rgb(11.764706%,23.529412%,39.215687%);fill-opacity:1;" d="M 129.332031 1.25 L 129.222656 1.25 L 129.222656 113.382812 C 138.175781 115.09375 144.902344 122.328125 144.902344 130.996094 C 144.902344 133.648438 144.253906 136.160156 143.125 138.425781 L 249.03125 182.308594 L 125.15625 249.058594 L 249.035156 182.308594 Z M 129.332031 1.25 "/>
<path style=" stroke:none;fill-rule:nonzero;fill:rgb(23.529412%,50.980395%,70.588237%);fill-opacity:1;" d="M 1.273438 182.308594 L 107.183594 138.425781 C 106.054688 136.160156 105.410156 133.648438 105.410156 130.996094 C 105.410156 122.328125 112.132812 115.09375 121.085938 113.382812 L 121.085938 1.25 L 120.980469 1.25 Z M 1.273438 182.308594 "/>
<path style=" stroke:none;fill-rule:nonzero;fill:rgb(7.843138%,15.686275%,27.450982%);fill-opacity:1;" d="M 143.125 138.425781 C 140.019531 144.65625 133.152344 148.996094 125.152344 148.996094 L 125.15625 249.058594 L 249.03125 182.308594 Z M 143.125 138.425781 "/>
<path style=" stroke:none;fill-rule:nonzero;fill:rgb(17.647059%,29.411766%,41.176471%);fill-opacity:1;" d="M 125.152344 249.058594 L 125.152344 148.996094 C 117.15625 148.996094 110.289062 144.65625 107.183594 138.425781 L 1.273438 182.308594 Z M 125.152344 249.058594 "/>
</g>
</svg>
